X:1
T:Si variable
T:Si variable
T:Jean Le Cocq
C:Jean Le Cocq
%%score [ 1 2 [ 3 4 ] ]
L:1/8
Q:1/4=84
M:2/2
K:C
V:1 treble nm="Superius" snm="S"
V:2 treble nm="Altus" snm="A"
V:3 treble-8 nm="Tenor 1" snm="T 1"
V:4 treble-8 nm="Tenor 2" snm="T 2"
V:1
 z4 G4 | G2 G2 c3 d | ef e4 dc | d2 B2 A2 B2 | c2 B2 A4 | G8 | z2 G2 c3 d | e2 f3 edc | %8
w: Si|va- ri- a- *||ble onc- ques fut|da- moi- sel-|le,|onc- ques _|_ fut _ _ _|
 BA Bc d2 e2 | dc c4 B2 | c2 e2 e2 d2 | cd ef g4 | e4 e2 d2 | c3 d e2 f2 | d2 e3 d cB | c4 B4- | %16
w: _ _ _ _ da- moi-|sel- * * *|le, si cueur sans|foy _ _ _ _|si cueur sans|foy _ _ d'hom-|me fut _ a- *|prou- vé,|
 B4 z2 B2- | B2 B2 c4- | c2 BA B2 B2 | c6 B2 | A2 B2 c4 | d4 G2 g2 | g2 g2 e2 e2 |: e3 d c2 c2 | %24
w: _ si|_ fainct es-|* * * sprit en|corps plein|de cau- tel-|* le, fut|ja- mais veu en|vous, je l'ay trou-|
 B4 z2 g2 | g2 g2 e2 e2 | f4 e2 d2- | d2 c4 B2 | A4 G4- | G4 z2 g2 |1 g2 g2 e2 e2 :|2 G8- || G8- | %33
w: vé, fut|ja- mais veu en|vous, je l'ay|_ _ _|trou- vé,|_ fut|ja- mais veu en|vé.|_|
 G8 |] %34
w: |
V:2
 z8 | z2 C2 C2 C2 | G4 G4 | z2 G2 F2 G2 | A2 G2 E2 F2 | D4 E2 C2 | E3 F G2 A2 | B2 c3 B A2 | %8
w: |Si va- ri-|a- ble|onc- * fut|da- moi- sel- *|* le, onc-|ques- fut da- moi-|sel- * * *|
 G3 A B2 c2 | A2 F2 G4 | E4 G2 G2 | A2 c4 B2 | c2 c2 c2 B2 | A2 c4 A2 | BA GF E2 G2- | G2 F2 G4- | %16
w: ||le, si cueur|sans foy, d'hom-|me fut a- prou-|* vé, fut|a- * * * * *|* prou- vé,|
 G4 z2 D2 | G4 G4 | G4 z2 G2 | G6 G2 | F2 G2 A3 G | F4 E4- | E4 z2 c2 |: c2 c2 G2 G2 | G3 F E2 D2 | %25
w: _ si|fainct es-|prit en|corps plein|de cau- tel- *|* le,|_ fut|ja- mais veu en|vous, le l'ay trou-|
 E2 G2 G2 G2 | A4 G4 | A2 A2 G3 F | E2 F2 E2 D2- | DC C4 B,2 |1 C4 z2 c2 :|2 E2 F2 D2 B,2 || %32
w: vé, fut ja- mais|veu en|vous, je l'ay _|_ _ _ _|* * * trou-|vé, fut|(ay) _ _ _|
 E4 D4 | E8 |] %34
w: _ trou-|vé.|
V:3
 G4 G2 G2 | c3 d ef e2- | ed c4 BA | B2 d2 d2 d2 | f2 d3 c c2- | c2 B2 c2 G2 | c3 d e2 f2 | %7
w: Si va- ri-|a- * * * *||ble onc- ques fut|da- moi- * sel-|* * le, onc-|ques fut da- moi-|
 g2 a3 gfe | dc de f2 g2 | fe dc d4 | c4 z4 | e4 e2 d2 | cd ef g4 | e2 a2 g2 f2 | gfed c4- | %15
w: sel- * * * *|||le,|si cueur sans|foy _ _ _ _|d'hom- * me fut|a- * * * *|
 c2 c2 d4- | d2 d2 B4 | e8 | d6 d2 | e6 d2 | c2 d3 c c2- | c2 B2 c4- | c4 z2 g2 |: g2 g2 e2 e2 | %24
w: * prou- vé,|_ si fainct|es-|prit en|corps plein|de- cau- * tel-|* * le,|_ fut|ja- mais veu en|
 d3 c B c2 B | c8 | z2 c2 c2 d2 | e2 f2 e2 d2- | d2 c4 B2 | e4 d4 |1 e4 z2 g2 :|2 dc c2 B2 d2- || %32
w: vous, je l'ay _ trou-|vé,|en vous je|l'ay _ _ _|_ _ _|* trou-|vé, fit|(ay) _ _ _ _|
 dc c4 B2 | c8 |] %34
w: _ _ _ trou-|vé.|
V:4
 z8 | z4 C4 | C2 C2 G4 | G2 G2 D2 G2 | F2 G2 A2 F2 | G4 C2 C2- | C2 c3 B A2 | G2 F4 F2 | %8
w: |Si|va- ri- a-|ble onc- ques fut|da- moi- sel- *|* le, onc-|* ques _ _|ques fut da-|
 G3 F/E/ D2 C2 | F2 A2 G4 | z2 c2 c2 B2 | A3 G E2 G2 | A2 c2 c2 G2 | A3 B c2 d2 | G2 c3 BAG | %15
w: maoi- * * sel- *|* * le,|si cueur sans|foy, _ _ d'hom-|me fut a- *|||
 A4 G4- | G4 z2 G2 | E4 C4 | G6 G2 | c6 G2 | A2 G2 F3 E | D4 C4- | C8 |: c4 c2 c2 | G2 G2 G2 G2 | %25
w: prou- vé,|_ si|fainct es-|prit en|corps plein|de cau- tel- *|* le,|_|fut ja- mais|veu en vous, je|
 C6 C2 | FGAB c2 B2 | A2 F2 G4 | A2 F2 G3 F | E2 C2 G4 |1 C8 :|2 A2 F2 G3 F || E2 C2 G4 | C8 |] %34
w: l'ay trou-|vé, _ _ _ _ _|en vous je|l'ay _ _ _|_ _ trou-|vé,|l'ay _ _ _|_ _ trou-|vé.|

